dist/svg/u1F63F.svg

<?xml version="1.0" encoding="UTF-8"?><svg id="Layer_1" xmlns="http://www.w3.org/2000/svg" viewBox="0 0 40 40"><g><g><path id="SVGID" d="M26.56156,4.83946c-.6036-.53633-1.54692-.36313-1.92433,.3507l-1.59388,3.01464c-.28237,.53407-.83695,.86818-1.44108,.86818h-3.20478c-.60412,0-1.15871-.33411-1.44108-.86818l-1.5939-3.01468c-.3774-.71381-1.32071-.887-1.92428-.35065C8.29374,9.41106,2,15.98341,2,20.7822c0,8.11449,8.05875,14.69221,18,14.69221s18-6.57772,18-14.69221c0-4.79881-6.2938-11.37146-11.43844-15.94274Z" style="fill:#ffb72d;"/><path d="M37.69436,18.83266l-3.38329,1.72463c-.78332,.39924-.78332,1.51836,0,1.91761l3.20772,1.63502c.30434-1.07085,.48121-2.18132,.48121-3.32773,0-.62239-.11007-1.2757-.30564-1.94954Z"/><path d="M2.30564,18.83266l3.38329,1.72463c.78332,.39924,.78332,1.51836,0,1.91761l-3.20772,1.63502c-.30434-1.07085-.48121-2.18132-.48121-3.32773,0-.62239,.11007-1.2757,.30564-1.94954Z"/></g><path d="M19.10047,18.7802h1.79906c.88139,0,1.35192,.82374,.77073,1.34928l-.89953,.81338c-.40836,.36925-1.13309,.36925-1.54145,0l-.89953-.81338c-.5812-.52553-.11066-1.34928,.77073-1.34928Z" style="fill:#ff5e01;"/><path d="M20,26.64159c-1.57728,0-2.80815,.27262-3.64818,.5474-.43572,.14253-.79218-.37534-.50829-.7353,.75835-.96156,2.09432-2.10656,4.15647-2.10656s3.39812,1.145,4.15647,2.10656c.28389,.35997-.07256,.87783-.50829,.7353-.84003-.27478-2.0709-.5474-3.64818-.5474Z" style="fill:#ff5e00;"/><path d="M25.20655,19.48108s-2.71621,2.91399-2.71621,5.26455c0,1.49996,1.21636,2.71299,2.71621,2.71335,1.49986-.00035,2.71621-1.21339,2.71621-2.71335,0-2.35056-2.71621-5.26455-2.71621-5.26455Z" style="fill:#fff;"/><g><circle cx="15.58945" cy="16.79795" r="2.03622"/><circle cx="24.41055" cy="16.79795" r="2.03622"/></g></g><rect width="40" height="40" style="fill:none;"/></svg>

<svg id="Layer_1" data-name="Layer 1" xmlns="http://www.w3.org/2000/svg" viewBox="0 0 40 40"><defs><style>.cls-1{fill:#ffb72d;}.cls-2{fill:#ff5e01;}.cls-3{fill:#ff5e00;}.cls-4{fill:#fff;}.cls-5{fill:none;}</style></defs><path id="SVGID" class="cls-1" d="M26.562,4.839a1.243,1.243,0,0,0-1.925.351L23.043,8.205a1.63,1.63,0,0,1-1.441.868H18.4a1.631,1.631,0,0,1-1.441-.868L15.363,5.19a1.243,1.243,0,0,0-1.925-.351C8.294,9.411,2,15.983,2,20.782,2,28.9,10.059,35.474,20,35.474S38,28.9,38,20.782C38,15.983,31.706,9.411,26.562,4.839Z"/><path d="M37.694,18.833l-3.383,1.724a1.077,1.077,0,0,0,0,1.918l3.208,1.635A12.148,12.148,0,0,0,38,20.782,7.02,7.02,0,0,0,37.694,18.833Z"/><path d="M2.306,18.833l3.383,1.724a1.077,1.077,0,0,1,0,1.918L2.481,24.11A12.148,12.148,0,0,1,2,20.782,7.02,7.02,0,0,1,2.306,18.833Z"/><path class="cls-2" d="M19.1,18.78h1.8c.881,0,1.351.824.77,1.349l-.9.814a1.212,1.212,0,0,1-1.542,0l-.9-.814C17.749,19.6,18.219,18.78,19.1,18.78Z"/><path class="cls-3" d="M20,26.642a11.738,11.738,0,0,0-3.648.547.468.468,0,0,1-.508-.735,5.152,5.152,0,0,1,8.312,0,.468.468,0,0,1-.508.735A11.738,11.738,0,0,0,20,26.642Z"/><path class="cls-4" d="M25.207,19.481S22.49,22.4,22.49,24.746a2.717,2.717,0,0,0,5.433,0C27.923,22.4,25.207,19.481,25.207,19.481Z"/><circle cx="15.589" cy="16.798" r="2.036"/><circle cx="24.411" cy="16.798" r="2.036"/><rect class="cls-5" width="40" height="40"/></svg>
